X: 118
T: Shiftin Gears
M:4/4
R:reel
C:Carl Elliott
S:Patti Kusturok Lamoureux OTFFAS Fiddle 
L:1/8
Z:Alf 
K:F
CB,|:A,B,CF DFF2|dcAd cAF_E|DFBd (3cdc AF|Gc=Bd c2CB,|
A,B,CF DFF2|dcAd cAF_E|DFBd (3cdc Ac|[1BGEG F2CB,:|[2 BGEG F4||
|:f3g (3fgf e2|d4 B2(3BcB|A^ceg a2eg|f2eg fcde|
f2fg fcAc|BAB2 G3F|EFGA BdcB|[1 AFFE F2Ac :|[2 AFFE F2|]
